src/lib/packages/icons/src/assets/filled/arrow-left-to-line.svg

<svg width="24" height="24" viewBox="0 0 24 24" fill="none" xmlns="http://www.w3.org/2000/svg">
<path d="M22 12C22 12.552 21.553 13 21 13H9.41406L12.707 16.293C13.098 16.684 13.098 17.316 12.707 17.707C12.512 17.902 12.256 18 12 18C11.744 18 11.488 17.902 11.293 17.707L6.29395 12.708C6.20095 12.615 6.1279 12.5051 6.0769 12.3821C5.9759 12.1381 5.9759 11.8619 6.0769 11.6179C6.1279 11.4949 6.20095 11.385 6.29395 11.292L11.293 6.29297C11.684 5.90197 12.316 5.90197 12.707 6.29297C13.098 6.68397 13.098 7.31603 12.707 7.70703L9.41406 11H21C21.553 11 22 11.448 22 12ZM3 5C2.447 5 2 5.448 2 6V18C2 18.552 2.447 19 3 19C3.553 19 4 18.552 4 18V6C4 5.448 3.553 5 3 5Z" fill="currentColor"/>
</svg>

<svg xmlns="http://www.w3.org/2000/svg" width="24" height="24" fill="none"><path fill="currentColor" d="M22 12a1 1 0 0 1-1 1H9.414l3.293 3.293a.999.999 0 1 1-1.414 1.414l-4.999-4.999a1 1 0 0 1 0-1.416l4.999-4.999a.999.999 0 1 1 1.414 1.414L9.414 11H21a1 1 0 0 1 1 1ZM3 5a1 1 0 0 0-1 1v12a1 1 0 1 0 2 0V6a1 1 0 0 0-1-1Z"/></svg>
